src/cmd/lc_deletecell.svg

<?xml version="1.0" encoding="UTF-8" standalone="no"?>
<svg
   xmlns:dc="http://purl.org/dc/elements/1.1/"
   xmlns:cc="http://creativecommons.org/ns#"
   xmlns:rdf="http://www.w3.org/1999/02/22-rdf-syntax-ns#"
   xmlns:svg="http://www.w3.org/2000/svg"
   xmlns="http://www.w3.org/2000/svg"
   xmlns:sodipodi="http://sodipodi.sourceforge.net/DTD/sodipodi-0.dtd"
   xmlns:inkscape="http://www.inkscape.org/namespaces/inkscape"
   viewBox="0 0 24 24"
   version="1.1"
   id="svg6"
   sodipodi:docname="lc_deletecell.svg"
   inkscape:version="0.92.4 (5da689c313, 2019-01-14)"
   inkscape:export-filename="/home/jupiter007/Libreoffice yaru theme fullcolor/build/cmd/lc_deletecell.png"
   inkscape:export-xdpi="95"
   inkscape:export-ydpi="95">
  <metadata
     id="metadata12">
    <rdf:RDF>
      <cc:Work
         rdf:about="">
        <dc:format>image/svg+xml</dc:format>
        <dc:type
           rdf:resource="http://purl.org/dc/dcmitype/StillImage" />
      </cc:Work>
    </rdf:RDF>
  </metadata>
  <defs
     id="defs10" />
  <sodipodi:namedview
     pagecolor="#ffffff"
     bordercolor="#666666"
     borderopacity="1"
     objecttolerance="10"
     gridtolerance="10"
     guidetolerance="10"
     inkscape:pageopacity="0"
     inkscape:pageshadow="2"
     inkscape:window-width="1920"
     inkscape:window-height="1011"
     id="namedview8"
     showgrid="true"
     inkscape:zoom="27.812867"
     inkscape:cx="7.2282341"
     inkscape:cy="11.297926"
     inkscape:window-x="0"
     inkscape:window-y="32"
     inkscape:window-maximized="1"
     inkscape:current-layer="svg6">
    <inkscape:grid
       type="xygrid"
       id="grid822" />
  </sodipodi:namedview>
  <rect
     style="opacity:1;fill:#ffffff;fill-opacity:1;stroke:none;stroke-width:2;stroke-linecap:round;stroke-linejoin:round;stroke-miterlimit:4;stroke-dasharray:none;stroke-opacity:1"
     id="rect827"
     width="14"
     height="14"
     x="5"
     y="5"
     inkscape:export-filename="/home/jupiter007/Libreoffice yaru theme fullcolor/build/cmd/rect827.png"
     inkscape:export-xdpi="95"
     inkscape:export-ydpi="95" />
  <path
     d="m 4,6 v 12 c 0,2 1,2 3,2 h 10 c 2,0 3,0 3,-2 V 6 C 20,4 19,4 17,4 H 7 C 5,4 4,4 4,6 Z M 7,5 H 9 V 7 H 5 V 6 C 5,5 6,5 7,5 Z m 3,0 h 4 v 2 h -4 z m 5,0 h 2 c 1,0 2,0 2,1 V 7 H 16 15 V 5.9003906 Z M 5,8 h 4 v 2 h 1 V 8 h 4 v 2 h 1 V 8 h 1 3 v 2 h -4 v 1 h 4 v 1 1 h -4 v 1 h 4 v 2 h -3 -1 v -2 h -1 v 2 H 10 V 14 H 9 v 2 H 5 V 14 H 9 V 13 H 5 V 12 11 H 9 V 10 H 5 Z m 0,9 h 3 1 v 1 1 H 7 C 6,19 5,19 5,18 Z m 5,0 h 4 v 1 1 h -4 v -1 z m 5,0 h 1 3 v 1 c 0,1 -1,1 -2,1 h -2 v -1 z"
     id="path2"
     inkscape:connector-curvature="0"
     style="fill:#6d6d6d;fill-opacity:1"
     sodipodi:nodetypes="cccccccccccccccccccccccccccccccccccccccccccccccccccccccccccccccccccccccccccccccccccccccccccc" />
  <path
     d="m9 10v3 1h1 2.292969 1.414062.292969 1v-1-3h-1-4zm1.707031 1h2.585938l.707031.707031v1.292969h-1.292969zm-.707031.707031 1.292969 1.292969h-1.292969z"
     fill="#c7162b"
     id="path4" />
  <circle
     style="opacity:1;vector-effect:none;fill:#c7162b;fill-opacity:1;stroke:none;stroke-width:3.49999976;stroke-linecap:butt;stroke-linejoin:round;stroke-miterlimit:4;stroke-dasharray:none;stroke-dashoffset:0;stroke-opacity:1"
     id="path2644"
     cy="18.5"
     cx="18.5"
     r="3.5" />
  <path
     inkscape:connector-curvature="0"
     id="path1063"
     overflow="visible"
     font-weight="400"
     style="color:#000000;font-weight:400;line-height:normal;font-family:sans-serif;text-indent:0;text-align:start;text-decoration:none;text-decoration-line:none;text-decoration-style:solid;text-decoration-color:#000000;text-transform:none;white-space:normal;overflow:visible;isolation:auto;mix-blend-mode:normal;fill:#ffffff;fill-opacity:1;marker:none"
     d="M 19.914214,16.378679 18.5,17.792892 l -1.414214,-1.414213 -0.707106,0.707106 1.414213,1.414214 -1.414213,1.414214 0.707106,0.707106 1.414214,-1.414213 1.414214,1.414213 0.707106,-0.707106 -1.414213,-1.414214 1.414213,-1.414214 z" />
</svg>

<?xml version="1.0" encoding="UTF-8" standalone="no"?>
<svg
   xmlns:dc="http://purl.org/dc/elements/1.1/"
   xmlns:cc="http://creativecommons.org/ns#"
   xmlns:rdf="http://www.w3.org/1999/02/22-rdf-syntax-ns#"
   xmlns:svg="http://www.w3.org/2000/svg"
   xmlns="http://www.w3.org/2000/svg"
   xmlns:sodipodi="http://sodipodi.sourceforge.net/DTD/sodipodi-0.dtd"
   xmlns:inkscape="http://www.inkscape.org/namespaces/inkscape"
   viewBox="0 0 24 24"
   version="1.1"
   id="svg6"
   sodipodi:docname="lc_deletecell.svg"
   inkscape:version="1.0.1 (3bc2e813f5, 2020-09-07)"
   inkscape:export-filename="/home/jupiter007/Libreoffice yaru theme fullcolor/build/cmd/lc_deletecell.png"
   inkscape:export-xdpi="95"
   inkscape:export-ydpi="95">
  <metadata
     id="metadata12">
    <rdf:RDF>
      <cc:Work
         rdf:about="">
        <dc:format>image/svg+xml</dc:format>
        <dc:type
           rdf:resource="http://purl.org/dc/dcmitype/StillImage" />
      </cc:Work>
    </rdf:RDF>
  </metadata>
  <defs
     id="defs10" />
  <sodipodi:namedview
     pagecolor="#ffffff"
     bordercolor="#666666"
     borderopacity="1"
     objecttolerance="10"
     gridtolerance="10"
     guidetolerance="10"
     inkscape:pageopacity="0"
     inkscape:pageshadow="2"
     inkscape:window-width="1920"
     inkscape:window-height="1011"
     id="namedview8"
     showgrid="true"
     inkscape:zoom="55.625734"
     inkscape:cx="11.709395"
     inkscape:cy="11.945565"
     inkscape:window-x="0"
     inkscape:window-y="0"
     inkscape:window-maximized="1"
     inkscape:current-layer="svg6"
     inkscape:document-rotation="0">
    <inkscape:grid
       type="xygrid"
       id="grid822" />
  </sodipodi:namedview>
  <rect
     style="opacity:1;fill:#ffffff;fill-opacity:1;stroke:none;stroke-width:2;stroke-linecap:round;stroke-linejoin:round;stroke-miterlimit:4;stroke-dasharray:none;stroke-opacity:1"
     id="rect827"
     width="14"
     height="14"
     x="5"
     y="5"
     inkscape:export-filename="/home/jupiter007/Libreoffice yaru theme fullcolor/build/cmd/rect827.png"
     inkscape:export-xdpi="95"
     inkscape:export-ydpi="95" />
  <path
     d="m 4,6 v 12 c 0,2 1,2 3,2 h 10 c 2,0 3,0 3,-2 V 6 C 20,4 19,4 17,4 H 7 C 5,4 4,4 4,6 Z M 7,5 H 9 V 7 H 5 V 6 C 5,5 6,5 7,5 Z m 3,0 h 4 v 2 h -4 z m 5,0 h 2 c 1,0 2,0 2,1 V 7 H 16 15 V 5.9003906 Z M 5,8 h 4 v 2 h 1 V 8 h 4 v 2 h 1 V 8 h 1 3 v 2 h -4 v 1 h 4 v 1 1 h -4 v 1 h 4 v 2 h -3 -1 v -2 h -1 v 2 H 10 V 14 H 9 v 2 H 5 V 14 H 9 V 13 H 5 V 12 11 H 9 V 10 H 5 Z m 0,9 h 3 1 v 1 1 H 7 C 6,19 5,19 5,18 Z m 5,0 h 4 v 1 1 h -4 v -1 z m 5,0 h 1 3 v 1 c 0,1 -1,1 -2,1 h -2 v -1 z"
     id="path2"
     inkscape:connector-curvature="0"
     style="fill:#6d6d6d;fill-opacity:1"
     sodipodi:nodetypes="cccccccccccccccccccccccccccccccccccccccccccccccccccccccccccccccccccccccccccccccccccccccccccc" />
  <path
     id="path4"
     style="fill:#c7162b;fill-opacity:1"
     d="M 9 10 L 9 13 L 9 14 L 10 14 L 12.292969 14 L 13.707031 14 L 14 14 L 15 14 L 15 13 L 15 10 L 14 10 L 10 10 L 9 10 z M 10 11 L 14 11 L 14 13 L 10 13 L 10 11 z " />
  <circle
     style="opacity:1;vector-effect:none;fill:#c7162b;fill-opacity:1;stroke:none;stroke-width:3.49999976;stroke-linecap:butt;stroke-linejoin:round;stroke-miterlimit:4;stroke-dasharray:none;stroke-dashoffset:0;stroke-opacity:1"
     id="path2644"
     cy="18.5"
     cx="18.5"
     r="3.5" />
  <path
     inkscape:connector-curvature="0"
     id="path1063"
     overflow="visible"
     font-weight="400"
     style="color:#000000;font-weight:400;line-height:normal;font-family:sans-serif;text-indent:0;text-align:start;text-decoration:none;text-decoration-line:none;text-decoration-style:solid;text-decoration-color:#000000;text-transform:none;white-space:normal;overflow:visible;isolation:auto;mix-blend-mode:normal;fill:#ffffff;fill-opacity:1;marker:none"
     d="M 19.914214,16.378679 18.5,17.792892 l -1.414214,-1.414213 -0.707106,0.707106 1.414213,1.414214 -1.414213,1.414214 0.707106,0.707106 1.414214,-1.414213 1.414214,1.414213 0.707106,-0.707106 -1.414213,-1.414214 1.414213,-1.414214 z" />
  <rect
     style="fill:#fad1d6;fill-opacity:1;fill-rule:evenodd;stroke-width:2;stroke-linecap:round;stroke-linejoin:round"
     id="rect848"
     width="4"
     height="2"
     x="10"
     y="11" />
</svg>
